Numix-Light/16/status/indicator-keyboard-Hu-2.svg

<?xml version="1.0" encoding="UTF-8" standalone="no"?>
<svg
   xmlns:dc="http://purl.org/dc/elements/1.1/"
   xmlns:cc="http://creativecommons.org/ns#"
   xmlns:rdf="http://www.w3.org/1999/02/22-rdf-syntax-ns#"
   xmlns:svg="http://www.w3.org/2000/svg"
   xmlns="http://www.w3.org/2000/svg"
   xmlns:sodipodi="http://sodipodi.sourceforge.net/DTD/sodipodi-0.dtd"
   xmlns:inkscape="http://www.inkscape.org/namespaces/inkscape"
   viewBox="0 0 16 16"
   id="svg2"
   version="1.1"
   inkscape:version="0.91 r13725"
   sodipodi:docname="indicator-keyboard-Hu-2.svg">
  <metadata
     id="metadata14">
    <rdf:RDF>
      <cc:Work
         rdf:about="">
        <dc:format>image/svg+xml</dc:format>
        <dc:type
           rdf:resource="http://purl.org/dc/dcmitype/StillImage" />
      </cc:Work>
    </rdf:RDF>
  </metadata>
  <defs
     id="defs12" />
  <sodipodi:namedview
     pagecolor="#ffffff"
     bordercolor="#666666"
     borderopacity="1"
     objecttolerance="10"
     gridtolerance="10"
     guidetolerance="10"
     inkscape:pageopacity="0"
     inkscape:pageshadow="2"
     inkscape:window-width="640"
     inkscape:window-height="480"
     id="namedview10"
     showgrid="false"
     inkscape:zoom="14.75"
     inkscape:cx="8"
     inkscape:cy="8"
     inkscape:window-x="65"
     inkscape:window-y="24"
     inkscape:window-maximized="0"
     inkscape:current-layer="svg2" />
  <path
     style="fill:#353535;fill-opacity:1"
     d="M 1.5996094 0 C 0.71320937 2.9605947e-16 0 0.71320937 0 1.5996094 L 0 14.400391 C 2.9605947e-16 15.286791 0.71320937 16 1.5996094 16 L 14.400391 16 C 15.286791 16 16 15.286791 16 14.400391 L 16 1.5996094 C 16 0.71320937 15.286791 0 14.400391 0 L 1.5996094 0 z M 1.3320312 4.859375 L 1.9433594 4.859375 L 1.9433594 7.5683594 L 5.328125 7.5683594 L 5.328125 4.859375 L 5.9394531 4.859375 L 5.9394531 11.095703 L 5.328125 11.095703 L 5.328125 8.0996094 L 1.9433594 8.0996094 L 1.9433594 11.095703 L 1.3320312 11.095703 L 1.3320312 4.859375 z M 7.4648438 6.4433594 L 8.0488281 6.4433594 L 8.0488281 8.8632812 C 8.0488281 9.1932813 8.0730937 9.4731719 8.1210938 9.7011719 C 8.1690938 9.9291721 8.2474687 10.115766 8.3554688 10.259766 C 8.4634688 10.397766 8.6015312 10.498453 8.7695312 10.564453 C 8.9435312 10.624453 9.1543906 10.654297 9.4003906 10.654297 C 9.6763906 10.654297 9.9151406 10.639375 10.119141 10.609375 C 10.323141 10.579375 10.451859 10.553297 10.505859 10.529297 L 10.505859 6.4433594 L 11.091797 6.4433594 L 11.091797 10.933594 C 10.917797 10.981594 10.684625 11.035703 10.390625 11.095703 C 10.096625 11.155703 9.7365469 11.185547 9.3105469 11.185547 C 8.9625469 11.185547 8.6715 11.135203 8.4375 11.033203 C 8.2035 10.931203 8.0131406 10.787563 7.8691406 10.601562 C 7.7251406 10.415563 7.6206875 10.189781 7.5546875 9.9257812 C 7.4946875 9.6617812 7.4648438 9.3707344 7.4648438 9.0527344 L 7.4648438 6.4433594 z M 13.339844 8.7539062 C 13.733744 8.7539062 14.029616 8.851875 14.228516 9.046875 C 14.427416 9.237975 14.527344 9.5044563 14.527344 9.8476562 C 14.527344 9.9997563 14.499912 10.14475 14.445312 10.28125 C 14.390712 10.41385 14.316256 10.543169 14.222656 10.667969 C 14.132956 10.792769 14.031062 10.912297 13.914062 11.029297 C 13.797062 11.146297 13.677541 11.263859 13.556641 11.380859 C 13.455241 11.478359 13.355312 11.578288 13.257812 11.679688 C 13.164212 11.777188 13.078 11.877116 13 11.978516 C 12.9259 12.076016 12.867112 12.172031 12.820312 12.269531 C 12.777412 12.363131 12.755859 12.457181 12.755859 12.550781 L 12.755859 12.5625 L 14.667969 12.5625 L 14.667969 12.896484 L 12.333984 12.896484 C 12.333984 12.888684 12.332058 12.874969 12.328125 12.855469 L 12.328125 12.755859 C 12.328125 12.572559 12.361434 12.402094 12.427734 12.246094 C 12.494034 12.086194 12.578287 11.937275 12.679688 11.796875 C 12.784987 11.656475 12.898638 11.525197 13.023438 11.404297 C 13.152137 11.283397 13.275578 11.165834 13.392578 11.052734 C 13.490078 10.959134 13.582169 10.869003 13.667969 10.783203 C 13.757669 10.693503 13.836044 10.603366 13.902344 10.509766 C 13.968644 10.416166 14.019594 10.316237 14.058594 10.210938 C 14.097594 10.105638 14.117187 9.9900344 14.117188 9.8652344 C 14.117188 9.5922344 14.044684 9.39825 13.896484 9.28125 C 13.752184 9.16035 13.568003 9.0996094 13.345703 9.0996094 C 13.220903 9.0996094 13.109219 9.1152844 13.011719 9.1464844 C 12.914219 9.1776844 12.829959 9.2149125 12.755859 9.2578125 C 12.685659 9.2968125 12.624919 9.3379594 12.574219 9.3808594 C 12.523519 9.4237594 12.486291 9.4570688 12.462891 9.4804688 L 12.263672 9.2167969 C 12.287072 9.1894969 12.328219 9.1503094 12.386719 9.0996094 C 12.449119 9.0450094 12.525534 8.9921062 12.615234 8.9414062 C 12.708834 8.8907063 12.814647 8.8476 12.935547 8.8125 C 13.056447 8.7735 13.191644 8.7539063 13.339844 8.7539062 z "
     id="path4" />
</svg>

<svg xmlns="http://www.w3.org/2000/svg" viewBox="0 0 16 16">
 <path d="m 1.6 0 c -0.886 0 -1.6 0.713 -1.6 1.6 l 0 12.801 c 0 0.886 0.713 1.6 1.6 1.6 l 12.801 0 c 0.886 0 1.6 -0.713 1.6 -1.6 l 0 -12.801 c 0 -0.886 -0.713 -1.6 -1.6 -1.6 l -12.801 0 z m -0.268 4.859 l 0.611 0 l 0 2.709 l 3.385 0 l 0 -2.709 l 0.611 0 l 0 6.236 l -0.611 0 l 0 -2.996 l -3.385 0 l 0 2.996 l -0.611 0 l 0 -6.236 z m 6.133 1.584 l 0.584 0 l 0 2.42 c 0 0.33 0.024 0.61 0.072 0.838 c 0.048 0.228 0.126 0.415 0.234 0.559 c 0.108 0.138 0.246 0.239 0.414 0.305 c 0.174 0.06 0.385 0.09 0.631 0.09 c 0.276 0 0.515 -0.015 0.719 -0.045 c 0.204 -0.03 0.333 -0.056 0.387 -0.08 l 0 -4.086 l 0.586 0 l 0 4.49 c -0.174 0.048 -0.407 0.102 -0.701 0.162 c -0.294 0.06 -0.654 0.09 -1.08 0.09 c -0.348 0 -0.639 -0.05 -0.873 -0.152 c -0.234 -0.102 -0.424 -0.246 -0.568 -0.432 c -0.144 -0.186 -0.248 -0.412 -0.314 -0.676 c -0.06 -0.264 -0.09 -0.555 -0.09 -0.873 l 0 -2.609 z m 5.875 2.311 c 0.394 0 0.69 0.098 0.889 0.293 c 0.199 0.191 0.299 0.458 0.299 0.801 c 0 0.152 -0.027 0.297 -0.082 0.434 c -0.055 0.133 -0.129 0.262 -0.223 0.387 c -0.09 0.125 -0.192 0.244 -0.309 0.361 c -0.117 0.117 -0.237 0.235 -0.357 0.352 c -0.101 0.098 -0.201 0.197 -0.299 0.299 c -0.094 0.098 -0.18 0.197 -0.258 0.299 c -0.074 0.097 -0.133 0.194 -0.18 0.291 c -0.043 0.094 -0.064 0.188 -0.064 0.281 l 0 0.012 l 1.912 0 l 0 0.334 l -2.334 0 c 0 -0.008 -0.002 -0.022 -0.006 -0.041 l 0 -0.1 c 0 -0.183 0.033 -0.354 0.1 -0.51 c 0.066 -0.16 0.151 -0.309 0.252 -0.449 c 0.105 -0.14 0.219 -0.272 0.344 -0.393 c 0.129 -0.121 0.252 -0.238 0.369 -0.352 c 0.098 -0.094 0.19 -0.184 0.275 -0.27 c 0.09 -0.09 0.168 -0.18 0.234 -0.273 c 0.066 -0.094 0.117 -0.194 0.156 -0.299 c 0.039 -0.105 0.059 -0.221 0.059 -0.346 c 0 -0.273 -0.073 -0.467 -0.221 -0.584 c -0.144 -0.121 -0.328 -0.182 -0.551 -0.182 c -0.125 0 -0.236 0.016 -0.334 0.047 c -0.098 0.031 -0.182 0.068 -0.256 0.111 c -0.07 0.039 -0.131 0.08 -0.182 0.123 c -0.051 0.043 -0.088 0.076 -0.111 0.1 l -0.199 -0.264 c 0.023 -0.027 0.065 -0.066 0.123 -0.117 c 0.062 -0.055 0.139 -0.108 0.229 -0.158 c 0.094 -0.051 0.199 -0.094 0.32 -0.129 c 0.121 -0.039 0.256 -0.059 0.404 -0.059 z" style="fill:#353535;fill-opacity:1"/>
</svg>
